imgs/linkedin.svg

<svg width="80" height="80" viewBox="0 0 80 80" fill="none" xmlns="http://www.w3.org/2000/svg">
<path d="M0 5.73069C0 2.56657 2.63006 0 5.87457 0H74.1254C77.3698 0 80 2.56657 80 5.7307V74.2693C80 77.4345 77.3698 80 74.1254 80L5.87457 80C2.63006 80 0 77.4345 0 74.2693V5.73069ZM24.7169 66.9683V30.8438H12.7098V66.9683H24.7169ZM18.7133 25.9116C22.9004 25.9116 25.5065 23.1377 25.5065 19.671C25.4285 16.1263 22.9004 13.4294 18.7927 13.4294C14.6855 13.4294 12 16.1263 12 19.671C12 23.1377 14.6056 25.9116 18.635 25.9116H18.7133ZM43.257 66.9683V46.7948C43.257 45.7152 43.335 44.6366 43.6521 43.8648C44.5201 41.7077 46.4957 39.4735 49.8127 39.4735C54.1575 39.4735 55.8955 42.7862 55.8955 47.6425V66.9683H67.9016V46.255C67.9016 35.1592 61.9779 29.9961 54.0782 29.9961C47.7088 29.9961 44.853 33.4968 43.2573 35.9583V36.0828H43.1771C43.2035 36.0416 43.2302 36.0001 43.2573 35.9583V30.8438H31.2503C31.4079 34.2335 31.2503 66.9683 31.2503 66.9683H43.257Z" fill="url(#paint0_linear_99_11)"/>
<defs>
<linearGradient id="paint0_linear_99_11" x1="40" y1="0" x2="40" y2="80" gradientUnits="userSpaceOnUse">
<stop stop-color="#FFB845"/>
<stop offset="1" stop-color="#F2AB38"/>
</linearGradient>
</defs>
</svg>

<svg width="80" height="80" fill="none" xmlns="http://www.w3.org/2000/svg"><path d="M0 5.73C0 2.568 2.63 0 5.875 0h68.25C77.37 0 80 2.567 80 5.73v68.54c0 3.165-2.63 5.73-5.875 5.73H5.875C2.63 80 0 77.434 0 74.27V5.73Zm24.717 61.238V30.844H12.71v36.124h12.007Zm-6.004-41.056c4.187 0 6.793-2.774 6.793-6.241-.078-3.545-2.606-6.242-6.713-6.242S12 16.126 12 19.671c0 3.467 2.606 6.24 6.635 6.24h.078Zm24.544 41.056V46.795c0-1.08.078-2.158.395-2.93.868-2.157 2.844-4.392 6.16-4.392 4.346 0 6.084 3.313 6.084 8.17v19.325h12.006V46.255c0-11.096-5.924-16.259-13.824-16.259-6.37 0-9.225 3.5-10.82 5.962v.125h-.08l.08-.125v-5.114H31.25c.158 3.39 0 36.124 0 36.124h12.007Z" fill="url(#a)"/><defs><linearGradient id="a" x1="40" y1="0" x2="40" y2="80" gradientUnits="userSpaceOnUse"><stop stop-color="#FFB845"/><stop offset="1" stop-color="#F2AB38"/></linearGradient></defs></svg>
